X: 346
T: Polska efter Erlandsson
S: spelad av [[Personer/Magnus Holmström]] efter [[Personer/Carl Herman Erlandsson]]
O: Uppland
R: Polska
Z: Nils L
M: 3/4
L: 1/16
K: DDor
d2D2 D2D2 D2eg | f2>e2 e2de A4   | fefg a2f2 e2d2 | d2^cd e2fe c2A2 |
d2D2 D2D2 D2eg | f2>e2 e2de A2e2 | fefg a2f2 e2d2 |1 ^cdec d4 A2Bc :|2 ^cdec d8 |]
|: a4 ((3f2g2a2) ((3f2g2a2) | g2>e2 (ce)ge (ce)ge | (fe)fg a2f2 e2d2 | d2^cd e2fe c2A2 |
   a4 ((3f2g2a2) ((3f2g2a2) | g2>e2 (ce)ge (ce)ge | (fe)fg a2f2 e2d2 | ^cdec d8 :| 
(:musicend:)

Jag har hört triolerna varieras:(:music:)
